X: 21081
M: 6/8
L: 1/16
K: C
"_P."G2 |\
(c3ege) (c4B2) | (B2A2)A2 (A2G2)c2 |\
c2(Bcde) g2f2e2 | d3ed>e dcBAGF |\
(EG)(cege) (c4B2) | (B2A2)A2 (A2G2)c2 |
{cd}e4d2 {d}c2B2A2 | Gd'(c'bag) ("_>"g2^f2)e2 |\
d4g2 ("_>"g2^f2)e2 | (d4c2) ({Bd}c2B2A2) |\
d4(cA) G4(AB) | (GG^FG.A.B) (cde=f)(g2 |\
^f2)z2(=f2 e2)z2(_e2 |
d2)z2(c2 B2)z2.G2 |\
c4d2 e4^f2 | (gb)(d'bd'b) gbd'bd'b |\
g4z2 z4(c2 | B2)z2(c2 B2)z2(c2 |\
d2)z2(e2 {de}Hf4)d2 | g4(fd) c4(de) |
.c.E.F.G.A.B .c.d.e.f.g2 | f2z2(e2 d2)z2(c2 |\
c4z2 ("_>"g4B2) | c2z2(e2 c4) |]


